X:1
T:Title
%%score { ( 1 3 ) | ( 2 4 ) }
L:1/8
M:4/4
K:Ab
V:1 treble nm="Grand Piano"
V:3 treble 
V:2 bass 
V:4 bass 
V:1
 z4 z2[Q:1/4=100] (3CD=D | E2 [Ace]2 [Ace]2 (3CD=D | E2 [Ace]2 [Ace]2 E2 | E>F G>A B2 A2 | %4
[M:3/4] G6 |[M:1/4] (3G_G=G |[M:4/4] d2 [GBdf]2 [GBdf]2 (3G_G=G | c2 [Ace]2 [Ace]2 c2 | %8
 B>c B>c B2 F2 |[M:3/4] c2 B2 G2 |[M:1/4] (3CD=D |[M:4/4] E2 [Ace]2 [Ace]2 (3CD=D | %12
 E2 [Ace]2 [Ace]2 E2 | F>E F>G A2 B2 |[M:3/4] [=Ec]6 |[M:1/4] (3c_c=c | %16
[M:4/4] [=Af]2 [ce]2 d2 (3BAB | [Ge]2 [Bd]2 c2 E2 | F2 [Fe][Fd] [Gc]2 [GB]2 | A2 (3aaa a2 z2 | %20
 e4 c4 | B4 F4 | G>_G =G>A B2 G2 | F4 E4 | C2 E2 F2 A2 | A4 G4 | E2 G2 B2 d2 | [_cf]4 [=ce]4 | %28
 e4 c4 | B4 F4 | G>_G =G>A [_GB]2 [G_c]2 |[M:3/4] c2 (3c'c'c' c'2 |[M:1/4] (3c_c=c | %33
[M:4/4] [=Af]2 [ce]2 d2 (3BAB | [Ge]2 [Bd]2 c2 E2 | F2 [Fe][Fd] [Gc]2 [GB]2 | %36
[M:8/4] A2 (3aaa .a4 z8 |] %37
V:2
 z8 | A,,2 [E,A,C]2 [E,A,C]2 z2 | A,,2 [E,A,C]2 [E,A,C]2 z2 | A,,2 [E,A,C]2 [E,A,C]2 [E,A,C]2 | %4
[M:3/4] E,,2 [E,G,]2 [E,G,]2 |[M:1/4] z2 |[M:4/4] E,,2 [E,G,D]2 [E,G,D]2 z2 | %7
 A,,2 [E,A,C]2 [E,A,C]2 z2 | B,,2 [F,A,B,=D]2 [F,A,B,D]2 [F,A,B,D]2 | %9
[M:3/4] E,,2 [E,G,D]2 [E,G,D]2 |[M:1/4] z2 |[M:4/4] A,,2 [E,A,C]2 [E,A,C]2 z2 | %12
 A,,2 [E,A,C]2 [E,A,C]2 z2 | D,2 [F,A,D]2 [F,A,D]2 [F,A,DF]2 |[M:3/4] C,2 =E,2 E,2 | %15
[M:1/4][K:treble] (3C_C=C |[M:4/4] [G,C]2 [=A,E]2 [B,FB]2[K:bass] (3B,A,B, | %17
 [E,B,]2 [G,E]2 [A,EA]2 [C,A,]2 | [D,A,D]2 [D,A,][D,D] [E,C]2 [E,D]2 | %19
 z2 (3[Ace][Ace][Ace] [Ace]2 z2 | [A,CEA]2 [A,CE]2 [A,CEA]2[K:bass] [A,CE]2 | %21
 [B,,F,A,]2 [B,,F,]2 [B,,F,A,]2 [B,,F,A,]2 | [E,B,D]2 [E,B,D]2 [E,G,D]2 [E,B,D]2 | %23
 [A,,A,]2 [A,,A,]2 [A,,A,]2 [A,,A,]2 | C,2 E,2 F,2 A,2 | [E,B,D]2 [E,B,]2 [E,B,D]2 [E,B,]2 | %26
 E,2 G,2 B,2[K:treble] D2 | [A,D]4 [A,E]4 | [A,CEA]2 [A,CE]2 [A,CEA]2[K:bass] [A,CE]2 | %29
 [B,,F,A,]2 [B,,F,]2 [B,,F,A,]2 [B,,F,A,]2 | [E,B,D]2 [E,B,D]2 [D,F,]2 [D,F,]2 | %31
[M:3/4] z2[K:treble] (3[c=eg][ceg][ceg] [ceg]2 |[M:1/4] (3C_C=C | %33
[M:4/4] [G,C]2 [=A,E]2 [B,FB]2[K:bass] (3B,A,B, | [E,B,]2 [G,E]2 [A,EA]2 [C,A,]2 | %35
 [D,A,D]2 [D,A,][D,D] [E,C]2 [E,D]2 |[M:8/4][K:treble] z2 (3[Ace][Ace][Ace] .[Ace]4 z8 |] %37
V:3
 x8 | x8 | x8 | x8 |[M:3/4] z2 D2 D2 |[M:1/4] x2 |[M:4/4] x8 | x8 | x8 |[M:3/4] x6 |[M:1/4] x2 | %11
[M:4/4] x8 | x8 | x8 |[M:3/4] z2 [G,C]2 [G,C]2 |[M:1/4] x2 |[M:4/4] x8 | x8 | x8 | x8 | %20
 z2 A2 z2 A2 | =D2 [A,D]2 D2 D2 | x8 | _C2 C2 =C2 C2 | x8 | z2 D2 z2 D2 | x8 | x8 | z2 A2 z2 A2 | %29
 =D2 [A,D]2 D2 D2 | x8 |[M:3/4] =E6 |[M:1/4] x2 |[M:4/4] x8 | x8 | x8 |[M:8/4] x16 |] %37
V:4
 x8 | x8 | x8 | x8 |[M:3/4] x6 |[M:1/4] x2 |[M:4/4] x8 | x8 | x8 |[M:3/4] x6 |[M:1/4] x2 | %11
[M:4/4] x8 | x8 | x8 |[M:3/4] x6 |[M:1/4][K:treble] x2 |[M:4/4] x6[K:bass] x2 | x8 | x8 | %19
 [A,CE]6 z2 | x6[K:bass] x2 | x8 | x8 | x8 | x8 | x8 | x6[K:treble] x2 | x8 | x6[K:bass] x2 | x8 | %30
 x8 |[M:3/4] [C,G,]6[K:treble] |[M:1/4] x2 |[M:4/4] x6[K:bass] x2 | x8 | x8 | %36
[M:8/4][K:treble] [A,CE]8 z8 |] %37

